icons-rebrand/svg/add-option-light.svg

<svg width="32" height="32" viewBox="0 0 32 32" fill="none" xmlns="http://www.w3.org/2000/svg">
<path d="M29 6.5H25.5V3C25.5 2.86739 25.4473 2.74021 25.3536 2.64645C25.2598 2.55268 25.1326 2.5 25 2.5C24.8674 2.5 24.7402 2.55268 24.6464 2.64645C24.5527 2.74021 24.5 2.86739 24.5 3V6.5H21C20.8674 6.5 20.7402 6.55268 20.6464 6.64645C20.5527 6.74021 20.5 6.86739 20.5 7C20.5 7.13261 20.5527 7.25979 20.6464 7.35355C20.7402 7.44732 20.8674 7.5 21 7.5H24.5V11C24.5 11.1326 24.5527 11.2598 24.6464 11.3536C24.7402 11.4473 24.8674 11.5 25 11.5C25.1326 11.5 25.2598 11.4473 25.3536 11.3536C25.4473 11.2598 25.5 11.1326 25.5 11V7.5H29C29.1326 7.5 29.2598 7.44732 29.3536 7.35355C29.4473 7.25979 29.5 7.13261 29.5 7C29.5 6.86739 29.4473 6.74021 29.3536 6.64645C29.2598 6.55268 29.1326 6.5 29 6.5Z" fill="#0F0F0F"/>
<path d="M22.1282 13.549C22.0086 13.4921 21.8713 13.485 21.7464 13.5292C21.6215 13.5735 21.5193 13.6655 21.4622 13.785L19.6442 17.598C19.5542 17.788 19.5042 17.995 19.4992 18.205V20.5H16.4992V14C16.4992 13.8674 16.4466 13.7402 16.3528 13.6464C16.259 13.5527 16.1318 13.5 15.9992 13.5C15.8666 13.5 15.7394 13.5527 15.6457 13.6464C15.5519 13.7402 15.4992 13.8674 15.4992 14V20.5H12.4992V18.188C12.4918 17.9842 12.4428 17.7841 12.3552 17.6L9.99523 12.649C9.74458 12.0395 9.5878 11.3955 9.53023 10.739C9.42975 9.80735 9.52691 8.86499 9.81536 7.97344C10.1038 7.08189 10.5771 6.26122 11.2042 5.56499C11.8171 4.89879 12.5643 4.37024 13.3966 4.01427C14.2289 3.6583 15.1272 3.48301 16.0322 3.49999C16.9839 3.49408 17.9254 3.69683 18.7902 4.09399C18.8499 4.12157 18.9143 4.13714 18.98 4.1398C19.0456 4.14246 19.1111 4.13217 19.1728 4.10951C19.2344 4.08685 19.291 4.05227 19.3393 4.00775C19.3876 3.96322 19.4267 3.90961 19.4542 3.84999C19.4818 3.79037 19.4974 3.7259 19.5 3.66027C19.5027 3.59463 19.4924 3.52912 19.4698 3.46746C19.4471 3.4058 19.4125 3.34921 19.368 3.30092C19.3235 3.25262 19.2699 3.21357 19.2102 3.18599C18.1932 2.72164 17.0862 2.48741 15.9682 2.49999C14.9344 2.48851 13.9098 2.69547 12.9615 3.10733C12.0132 3.51919 11.1625 4.12666 10.4652 4.88999C9.74881 5.69211 9.20716 6.63454 8.87472 7.65734C8.54227 8.68015 8.42632 9.76095 8.53423 10.831C8.60185 11.5964 8.78668 12.3468 9.08223 13.056L11.4522 18.029C11.4791 18.0841 11.4954 18.1438 11.5002 18.205V24.953C11.4925 25.6981 11.6699 26.4335 12.0164 27.0932C12.3629 27.7529 12.8678 28.3162 13.4857 28.7327C14.1036 29.1492 14.8152 29.4058 15.5567 29.4795C16.2982 29.5532 17.0464 29.4417 17.7342 29.155C18.5615 28.8098 19.2669 28.2255 19.7598 27.4768C20.2528 26.7282 20.511 25.8493 20.5012 24.953L20.4992 18.223C20.5016 18.1557 20.5179 18.0896 20.5472 18.029L22.3652 14.215C22.3937 14.1558 22.4102 14.0916 22.4137 14.026C22.4172 13.9604 22.4077 13.8948 22.3858 13.8329C22.3639 13.771 22.3299 13.714 22.2859 13.6653C22.2418 13.6166 22.1886 13.5771 22.1292 13.549H22.1282ZM19.5002 21.5V24.502H12.5002V21.5H19.5002ZM16.0002 28.502C15.1564 28.5162 14.3373 28.2175 13.7006 27.6636C13.064 27.1096 12.6549 26.3396 12.5522 25.502H19.4492C19.3466 26.3396 18.9375 27.1096 18.3008 27.6636C17.6642 28.2175 16.845 28.5162 16.0012 28.502H16.0002Z" fill="#0F0F0F"/>
</svg>

<svg width="32" height="32" viewBox="0 0 32 32" fill="none" xmlns="http://www.w3.org/2000/svg"><path d="M29 6.5h-3.5V3a.5.5 0 0 0-1 0v3.5H21a.5.5 0 0 0 0 1h3.5V11a.5.5 0 0 0 1 0V7.5H29a.5.5 0 1 0 0-1z" fill="#0F0F0F"/><path d="M22.128 13.549a.5.5 0 0 0-.666.236l-1.818 3.813c-.09.19-.14.397-.145.607V20.5h-3V14a.5.5 0 0 0-1 0v6.5h-3v-2.312a1.497 1.497 0 0 0-.144-.588l-2.36-4.951a6.519 6.519 0 0 1-.465-1.91 6.663 6.663 0 0 1 1.674-5.174A6.397 6.397 0 0 1 16.032 3.5a6.512 6.512 0 0 1 2.758.594.5.5 0 0 0 .42-.908 7.6 7.6 0 0 0-3.242-.686 7.343 7.343 0 0 0-5.503 2.39 7.751 7.751 0 0 0-1.931 5.941 7.5 7.5 0 0 0 .548 2.225l2.37 4.973a.49.49 0 0 1 .048.176v6.748a4.502 4.502 0 0 0 6.234 4.202 4.5 4.5 0 0 0 2.767-4.202l-.002-6.73a.485.485 0 0 1 .048-.194l1.818-3.814a.498.498 0 0 0-.236-.666zM19.5 21.5v3.002h-7V21.5h7zM16 28.502a3.416 3.416 0 0 1-3.448-3h6.897a3.416 3.416 0 0 1-3.448 3z" fill="#0F0F0F"/></svg>
